svg/left_squared.svg

<svg xmlns="http://www.w3.org/2000/svg" viewBox="0 0 32 32" enable-background="new 0 0 32 32"><path d="M 5 5 L 5 6 L 5 26 L 5 27 L 6 27 L 26 27 L 27 27 L 27 26 L 27 6 L 27 5 L 26 5 L 6 5 L 5 5 z M 7 7 L 25 7 L 25 25 L 7 25 L 7 7 z M 17.78125 9.28125 L 11.78125 15.28125 L 11.09375 16 L 11.78125 16.71875 L 17.78125 22.71875 L 19.21875 21.28125 L 13.9375 16 L 19.21875 10.71875 L 17.78125 9.28125 z" color="#000" overflow="visible" enable-background="accumulate"/></svg>

<svg xmlns="http://www.w3.org/2000/svg" viewBox="0 0 32 32"><path d="M5 5v22h22V5H5zm2 2h18v18H7V7zm10.78 2.28l-6 6-.686.72.687.72 6 6 1.44-1.44L13.937 16l5.28-5.28-1.437-1.44z"/></svg>
